pk/acceleration.svg

<svg viewBox="0 0 48 48" fill="none" xmlns="http://www.w3.org/2000/svg" height="1em" width="1em">
  <path d="M42 35H34" stroke="black" stroke-width="4" stroke-linecap="round"/>
  <path d="M31 42H27" stroke="black" stroke-width="4" stroke-linecap="round"/>
  <path d="M14 22L8 17H4C4 17 9.486 27 11.9999 27H44L38 22H14Z" fill="#2F88FF" stroke="black" stroke-width="4" stroke-linecap="round" stroke-linejoin="round"/>
  <path d="M30 22L18.6606 14L16 14L19 22" stroke="black" stroke-width="4" stroke-linecap="round" stroke-linejoin="round"/>
  <path d="M30 27L17.2 39L14 39L18.2667 27" stroke="black" stroke-width="4" stroke-linecap="round" stroke-linejoin="round"/>
  <path d="M32 11C32 12 29 13 29 13L39 13C39 13 41.8855 13 42.7446 10.7143C43.6299 8.35854 42.0442 5 39.0221 5C36 5 36 8 36 8C36 8 34.1454 7.42857 33 8C31.8546 8.57143 32 10 32 11Z" fill="#2F88FF" stroke="black" stroke-width="4" stroke-linecap="round" stroke-linejoin="round"/>
</svg>

<svg viewBox="0 0 48 48" fill="none" xmlns="http://www.w3.org/2000/svg" height="1em" width="1em">
  <path d="M42 35h-8m-3 7h-4" stroke="#000" stroke-width="4" stroke-linecap="round"/>
  <path d="m14 22-6-5H4s5.486 10 8 10h32l-6-5H14Z" fill="#2F88FF" stroke="#000" stroke-width="4" stroke-linecap="round" stroke-linejoin="round"/>
  <path d="m30 22-11.34-8H16l3 8m11 5L17.2 39H14l4.267-12" stroke="#000" stroke-width="4" stroke-linecap="round" stroke-linejoin="round"/>
  <path d="M32 11c0 1-3 2-3 2h10s2.886 0 3.745-2.286C43.63 8.36 42.045 5 39.022 5 36 5 36 8 36 8s-1.855-.571-3 0-1 2-1 3Z" fill="#2F88FF" stroke="#000" stroke-width="4" stroke-linecap="round" stroke-linejoin="round"/>
</svg>
